icons/box-arrow-topleft.svg

<svg xmlns="http://www.w3.org/2000/svg" viewBox="0 0 24 24" fill="currentColor">
  <path d="M3.75 7c0-1.88579 1.36421-3.25 3.25-3.25h1.25V7.5c0 1.21421 1.03579 2.25 2.25 2.25h3c1.2142 0 2.25-1.03579 2.25-2.25V3.75H17c1.7858 0 3.25 1.46421 3.25 3.25v10c0 1.7858-1.4642 3.25-3.25 3.25H7c-1.78579 0-3.25-1.4642-3.25-3.25V7Zm10.5-3.25h-4.5V7.5c0 .38579.3642.75.75.75h3c.3858 0 .75-.36421.75-.75V3.75ZM7 2.25C4.28579 2.25 2.25 4.28579 2.25 7v10c0 2.6142 2.13579 4.75 4.75 4.75h10c2.6142 0 4.75-2.1358 4.75-4.75V7c0-2.61421-2.1358-4.75-4.75-4.75H7Zm8.1107 11.6001h.8892c.4142 0 .75-.3358.75-.75s-.3358-.75-.75-.75h-2.4c-.2475 0-.4834.1013-.656.2394-.1964.1571-.394.4318-.394.8106v2.4c0 .4142.3358.75.75.75s.75-.3358.75-.75v-.8895l2.0197 2.0198c.2929.2928.7678.2928 1.0607 0 .2929-.2929.2929-.7678 0-1.0607l-2.0196-2.0196Z"/>
</svg>

<svg width="24" height="24" viewBox="0 0 24 24" fill="none" xmlns="http://www.w3.org/2000/svg">
<path fill-rule="evenodd" clip-rule="evenodd" d="M3.75 7C3.75 5.11421 5.11421 3.75 7 3.75H8.25V7.5C8.25 8.71421 9.28579 9.75 10.5 9.75H13.5C14.7142 9.75 15.75 8.71421 15.75 7.5V3.75H17C18.7858 3.75 20.25 5.21421 20.25 7V17C20.25 18.7858 18.7858 20.25 17 20.25H7C5.21421 20.25 3.75 18.7858 3.75 17V7ZM14.25 3.75H9.75V7.5C9.75 7.88579 10.1142 8.25 10.5 8.25H13.5C13.8858 8.25 14.25 7.88579 14.25 7.5V3.75ZM7 2.25C4.28579 2.25 2.25 4.28579 2.25 7V17C2.25 19.6142 4.38579 21.75 7 21.75H17C19.6142 21.75 21.75 19.6142 21.75 17V7C21.75 4.38579 19.6142 2.25 17 2.25H7ZM15.1107 13.8501H15.9999C16.4141 13.8501 16.7499 13.5143 16.7499 13.1001C16.7499 12.6859 16.4141 12.3501 15.9999 12.3501H13.5999C13.3524 12.3501 13.1165 12.4514 12.9439 12.5895C12.7475 12.7466 12.5499 13.0213 12.5499 13.4001V15.8001C12.5499 16.2143 12.8857 16.5501 13.2999 16.5501C13.7141 16.5501 14.0499 16.2143 14.0499 15.8001V14.9106L16.0696 16.9304C16.3625 17.2232 16.8374 17.2232 17.1303 16.9304C17.4232 16.6375 17.4232 16.1626 17.1303 15.8697L15.1107 13.8501Z" fill="black"/>
</svg>
